svgs/light/turtle.svg

<svg xmlns="http://www.w3.org/2000/svg" viewBox="0 0 576 512"><!--! Font Awesome Pro 6.6.0 by @fontawesome - https://fontawesome.com License - https://fontawesome.com/license (Commercial License) Copyright 2024 Fonticons, Inc. --><path d="M200 64C124.9 64 64 124.9 64 200l0 40c0 8.8-7.2 16-16 16s-16-7.2-16-16l0-40c0-92.8 75.2-168 168-168s168 75.2 168 168l0 40c0 8.8-7.2 16-16 16s-16-7.2-16-16l0-40c0-75.1-60.9-136-136-136zM400 188.6c0-42.3 34.3-76.6 76.6-76.6c54.9 0 99.4 44.5 99.4 99.4l0 12.6c0 35.3-28.7 64-64 64l-20.5 0c-20.3 57.4-74.7 96-135.8 96l-3.7 0 0 48c0 26.5-21.5 48-48 48l-32 0c-26.5 0-48-21.5-48-48l0-48-32 0 0 48c0 26.5-21.5 48-48 48l-32 0c-26.5 0-48-21.5-48-48l0-48-16 0c-26.5 0-48-21.5-48-48s21.5-48 48-48l312 0c22.1 0 40-17.9 40-40l0-59.4zM256 416l0 16c0 8.8 7.2 16 16 16l32 0c8.8 0 16-7.2 16-16l0-16 0-32 0-32 35.7 0c48.2 0 91-30.8 106.3-76.6l2.8-8.5c2.2-6.5 8.3-10.9 15.2-10.9l32 0c17.7 0 32-14.3 32-32l0-12.6c0-37.2-30.2-67.4-67.4-67.4C452 144 432 164 432 188.6l0 59.4c0 39.8-32.2 72-72 72l-40 0-64 0-96 0-64 0-48 0c-8.8 0-16 7.2-16 16s7.2 16 16 16l48 0 0 32 0 32 0 16c0 8.8 7.2 16 16 16l32 0c8.8 0 16-7.2 16-16l0-16 0-32 0-32 96 0 0 32 0 32zM480 192a16 16 0 1 1 0 32 16 16 0 1 1 0-32z"/></svg>

<svg xmlns="http://www.w3.org/2000/svg" viewBox="0 0 576 512"><!--! Font Awesome Pro 6.4.0 by @fontawesome - https://fontawesome.com License - https://fontawesome.com/license (Commercial License) Copyright 2023 Fonticons, Inc. --><path d="M200 64C124.9 64 64 124.9 64 200v40c0 8.8-7.2 16-16 16s-16-7.2-16-16V200c0-92.8 75.2-168 168-168s168 75.2 168 168v40c0 8.8-7.2 16-16 16s-16-7.2-16-16V200c0-75.1-60.9-136-136-136zM400 188.6c0-42.3 34.3-76.6 76.6-76.6c54.9 0 99.4 44.5 99.4 99.4V224c0 35.3-28.7 64-64 64H491.5c-20.3 57.4-74.7 96-135.8 96H352v48c0 26.5-21.5 48-48 48H272c-26.5 0-48-21.5-48-48V384H192v48c0 26.5-21.5 48-48 48H112c-26.5 0-48-21.5-48-48V384H48c-26.5 0-48-21.5-48-48s21.5-48 48-48H360c22.1 0 40-17.9 40-40V188.6zM256 416v16c0 8.8 7.2 16 16 16h32c8.8 0 16-7.2 16-16V416 384 352h35.7c48.2 0 91-30.8 106.3-76.6l2.8-8.5c2.2-6.5 8.3-10.9 15.2-10.9h32c17.7 0 32-14.3 32-32V211.4c0-37.2-30.2-67.4-67.4-67.4C452 144 432 164 432 188.6V248c0 39.8-32.2 72-72 72H320 256 160 96 48c-8.8 0-16 7.2-16 16s7.2 16 16 16H96v32 32 16c0 8.8 7.2 16 16 16h32c8.8 0 16-7.2 16-16V416 384 352h96v32 32zM480 192a16 16 0 1 1 0 32 16 16 0 1 1 0-32z"/></svg>
